dist/images/laptop.svg

<svg width="660" height="382" viewBox="0 0 660 382" fill="none" xmlns="http://www.w3.org/2000/svg">
<path d="M76.9083 341.459L76.9083 341.891L77.341 341.891L581.773 341.981L582.206 341.981L582.206 341.548L582.15 25.4537L582.15 25.021L581.717 25.021L77.2847 24.9314L76.8521 24.9314L76.8522 25.364L76.9083 341.459ZM594.991 355.745C594.992 363.647 588.587 370.051 580.686 370.05L78.9837 369.961C71.0819 369.959 64.6753 363.553 64.6739 355.65L64.6139 17.7188C64.6125 9.81673 71.0168 3.41235 78.9187 3.41375L580.621 3.5028C588.522 3.5042 594.93 9.91087 594.931 17.8129L594.991 355.745Z" fill="#112E49" stroke="#112E49" stroke-width="0.865241"/>
<path d="M63.7487 17.7188C63.7472 9.35203 70.5519 2.54723 78.9185 2.54872L580.621 2.63775C588.989 2.63923 595.795 9.44647 595.796 17.8132L595.856 355.745C595.858 364.112 589.054 370.917 580.686 370.915L78.9838 370.826C70.6172 370.825 63.8101 364.017 63.8086 355.651L63.7487 17.7188ZM78.9841 372.145L580.687 372.234C589.778 372.235 597.176 364.839 597.175 355.745L597.115 17.8134C597.113 8.72078 589.712 1.32085 580.621 1.31924L78.9183 1.23021C69.8258 1.22859 62.4286 8.62587 62.4302 17.7186L62.4902 355.65C62.4918 364.744 69.8915 372.143 78.9841 372.145Z" fill="white" stroke="#030E17" stroke-width="0.865241"/>
<path d="M659.846 373.426L0.37207 373.309L0.370038 361.85L659.844 361.967L659.846 373.426Z" fill="url(#paint0_linear_747_297050)"/>
<g filter="url(#filter0_i_747_297050)">
<path d="M625.658 380.159C622.13 380.854 618.543 381.204 614.948 381.203L44.1904 381.102C40.4799 381.101 36.7787 380.727 33.1427 379.986L0.370689 373.309L659.845 373.426L625.658 380.159Z" fill="#112E49"/>
</g>
<g filter="url(#filter1_ii_747_297050)">
<path d="M285.333 370.429L375.086 370.445C380.084 370.446 384.136 366.394 384.135 361.395L276.281 361.376C276.282 366.375 280.335 370.428 285.333 370.429Z" fill="url(#paint1_linear_747_297050)"/>
</g>
<defs>
<filter id="filter0_i_747_297050" x="0.371094" y="369.848" width="659.474" height="11.3555" filterUnits="userSpaceOnUse" color-interpolation-filters="sRGB">
<feFlood flood-opacity="0" result="BackgroundImageFix"/>
<feBlend mode="normal" in="SourceGraphic" in2="BackgroundImageFix" result="shape"/>
<feColorMatrix in="SourceAlpha" type="matrix" values="0 0 0 0 0 0 0 0 0 0 0 0 0 0 0 0 0 0 127 0" result="hardAlpha"/>
<feOffset dy="-3.46096"/>
<feGaussianBlur stdDeviation="3.46096"/>
<feComposite in2="hardAlpha" operator="arithmetic" k2="-1" k3="1"/>
<feColorMatrix type="matrix" values="0 0 0 0 0.768627 0 0 0 0 0.768627 0 0 0 0 0.768627 0 0 0 1 0"/>
<feBlend mode="normal" in2="shape" result="effect1_innerShadow_747_297050"/>
</filter>
<filter id="filter1_ii_747_297050" x="276.28" y="359.646" width="107.854" height="12.5293" filterUnits="userSpaceOnUse" color-interpolation-filters="sRGB">
<feFlood flood-opacity="0" result="BackgroundImageFix"/>
<feBlend mode="normal" in="SourceGraphic" in2="BackgroundImageFix" result="shape"/>
<feColorMatrix in="SourceAlpha" type="matrix" values="0 0 0 0 0 0 0 0 0 0 0 0 0 0 0 0 0 0 127 0" result="hardAlpha"/>
<feOffset dy="1.73048"/>
<feGaussianBlur stdDeviation="0.865241"/>
<feComposite in2="hardAlpha" operator="arithmetic" k2="-1" k3="1"/>
<feColorMatrix type="matrix" values="0 0 0 0 0.95 0 0 0 0 0.95 0 0 0 0 0.95 0 0 0 1 0"/>
<feBlend mode="normal" in2="shape" result="effect1_innerShadow_747_297050"/>
<feColorMatrix in="SourceAlpha" type="matrix" values="0 0 0 0 0 0 0 0 0 0 0 0 0 0 0 0 0 0 127 0" result="hardAlpha"/>
<feOffset dy="-1.73048"/>
<feGaussianBlur stdDeviation="3.46096"/>
<feComposite in2="hardAlpha" operator="arithmetic" k2="-1" k3="1"/>
<feColorMatrix type="matrix" values="0 0 0 0 0.88 0 0 0 0 0.88 0 0 0 0 0.88 0 0 0 1 0"/>
<feBlend mode="normal" in2="effect1_innerShadow_747_297050" result="effect2_innerShadow_747_297050"/>
</filter>
<linearGradient id="paint0_linear_747_297050" x1="0.371587" y1="367.58" x2="659.845" y2="367.463" gradientUnits="userSpaceOnUse">
<stop stop-color="#E0E0E0"/>
<stop offset="0.0107527" stop-color="#F2F2F2"/>
<stop offset="0.268817" stop-color="white"/>
<stop offset="0.817204" stop-color="white"/>
<stop offset="0.989247" stop-color="#F2F2F2"/>
<stop offset="1" stop-color="#E0E0E0"/>
</linearGradient>
<linearGradient id="paint1_linear_747_297050" x1="273.74" y1="370.984" x2="387.525" y2="370.964" gradientUnits="userSpaceOnUse">
<stop stop-color="#F2F2F2"/>
<stop offset="0.13176" stop-color="white"/>
<stop offset="0.868285" stop-color="white"/>
<stop offset="1" stop-color="#F2F2F2"/>
</linearGradient>
</defs>
</svg>

<svg width="660" height="382" fill="none" xmlns="http://www.w3.org/2000/svg"><path d="M76.908 341.459v.432h.433l504.432.09h.433v-.433l-.056-316.094v-.433h-.433l-504.432-.09h-.433v.433l.056 316.095zm518.083 14.286c.001 7.902-6.404 14.306-14.305 14.305l-501.702-.089c-7.902-.002-14.309-6.408-14.31-14.311l-.06-337.931c-.002-7.902 6.403-14.307 14.305-14.305l501.702.089c7.901.001 14.309 6.408 14.31 14.31l.06 337.932z" fill="#112E49" stroke="#112E49" stroke-width=".865"/><path d="M63.749 17.719c-.002-8.367 6.803-15.172 15.17-15.17l501.702.089c8.368.001 15.174 6.808 15.175 15.175l.06 337.932c.002 8.367-6.802 15.172-15.17 15.17l-501.702-.089c-8.367-.001-15.174-6.809-15.175-15.175l-.06-337.932zm15.235 354.426l501.703.089c9.091.001 16.489-7.395 16.488-16.489l-.06-337.932c-.002-9.092-7.403-16.492-16.494-16.494L78.918 1.23c-9.092 0-16.49 7.396-16.488 16.49l.06 337.931c.002 9.094 7.401 16.493 16.494 16.495z" fill="#fff" stroke="#030E17" stroke-width=".865"/><path d="M659.846 373.426L.372 373.309.37 361.85l659.474.117.002 11.459z" fill="url(#paint0_linear_747_297050)"/><g filter="url(#filter0_i_747_297050)"><path d="M625.658 380.159a55.333 55.333 0 01-10.71 1.044l-570.758-.101a55.4 55.4 0 01-11.047-1.116L.37 373.309l659.474.117-34.187 6.733z" fill="#112E49"/></g><g filter="url(#filter1_ii_747_297050)"><path d="M285.333 370.429l89.753.016a9.047 9.047 0 009.049-9.05l-107.854-.019a9.055 9.055 0 009.052 9.053z" fill="url(#paint1_linear_747_297050)"/></g><defs><linearGradient id="paint0_linear_747_297050" x1=".372" y1="367.58" x2="659.845" y2="367.463" gradientUnits="userSpaceOnUse"><stop stop-color="#E0E0E0"/><stop offset=".011" stop-color="#F2F2F2"/><stop offset=".269" stop-color="#fff"/><stop offset=".817" stop-color="#fff"/><stop offset=".989" stop-color="#F2F2F2"/><stop offset="1" stop-color="#E0E0E0"/></linearGradient><linearGradient id="paint1_linear_747_297050" x1="273.74" y1="370.984" x2="387.525" y2="370.964" gradientUnits="userSpaceOnUse"><stop stop-color="#F2F2F2"/><stop offset=".132" stop-color="#fff"/><stop offset=".868" stop-color="#fff"/><stop offset="1" stop-color="#F2F2F2"/></linearGradient><filter id="filter0_i_747_297050" x=".371" y="369.848" width="659.474" height="11.355" filterUnits="userSpaceOnUse" color-interpolation-filters="sRGB"><feFlood flood-opacity="0" result="BackgroundImageFix"/><feBlend in="SourceGraphic" in2="BackgroundImageFix" result="shape"/><feColorMatrix in="SourceAlpha" values="0 0 0 0 0 0 0 0 0 0 0 0 0 0 0 0 0 0 127 0" result="hardAlpha"/><feOffset dy="-3.461"/><feGaussianBlur stdDeviation="3.461"/><feComposite in2="hardAlpha" operator="arithmetic" k2="-1" k3="1"/><feColorMatrix values="0 0 0 0 0.768627 0 0 0 0 0.768627 0 0 0 0 0.768627 0 0 0 1 0"/><feBlend in2="shape" result="effect1_innerShadow_747_297050"/></filter><filter id="filter1_ii_747_297050" x="276.28" y="359.646" width="107.854" height="12.529" filterUnits="userSpaceOnUse" color-interpolation-filters="sRGB"><feFlood flood-opacity="0" result="BackgroundImageFix"/><feBlend in="SourceGraphic" in2="BackgroundImageFix" result="shape"/><feColorMatrix in="SourceAlpha" values="0 0 0 0 0 0 0 0 0 0 0 0 0 0 0 0 0 0 127 0" result="hardAlpha"/><feOffset dy="1.73"/><feGaussianBlur stdDeviation=".865"/><feComposite in2="hardAlpha" operator="arithmetic" k2="-1" k3="1"/><feColorMatrix values="0 0 0 0 0.95 0 0 0 0 0.95 0 0 0 0 0.95 0 0 0 1 0"/><feBlend in2="shape" result="effect1_innerShadow_747_297050"/><feColorMatrix in="SourceAlpha" values="0 0 0 0 0 0 0 0 0 0 0 0 0 0 0 0 0 0 127 0" result="hardAlpha"/><feOffset dy="-1.73"/><feGaussianBlur stdDeviation="3.461"/><feComposite in2="hardAlpha" operator="arithmetic" k2="-1" k3="1"/><feColorMatrix values="0 0 0 0 0.88 0 0 0 0 0.88 0 0 0 0 0.88 0 0 0 1 0"/><feBlend in2="effect1_innerShadow_747_297050" result="effect2_innerShadow_747_297050"/></filter></defs></svg>
